src/assets/images/email.svg

<svg width="19" height="18" viewBox="0 0 19 18" fill="none" xmlns="http://www.w3.org/2000/svg">
<path d="M10.0931 17.3014C8.41011 17.2935 6.7381 17.0296 5.13442 16.519C3.87574 16.0979 2.75132 15.3504 1.87595 14.3527C1.00057 13.3551 0.405581 12.143 0.151706 10.8403C-0.413692 8.11765 0.61724 5.23885 2.97795 2.94121C3.23155 2.69436 3.49507 2.45789 3.76785 2.2324C4.95867 1.23539 6.37423 0.543155 7.89235 0.21546C9.41048 -0.112235 10.9855 -0.0655454 12.4816 0.351497C13.9164 0.809638 15.1742 1.70058 16.0824 2.90204C16.9907 4.10351 17.5049 5.55661 17.5544 7.06194C17.6645 8.83757 17.0857 10.5873 15.9385 11.947C15.5046 12.4936 14.9284 12.91 14.2732 13.1506C13.6181 13.3911 12.9093 13.4465 12.2248 13.3106C11.9423 13.252 11.6746 13.137 11.4376 12.9725C11.2006 12.808 10.9992 12.5974 10.8455 12.3532C10.7075 12.1161 10.6188 11.8535 10.5848 11.5813C10.5507 11.3091 10.572 11.0328 10.6472 10.7689C11.3042 8.28659 11.9718 4.51427 11.9785 4.47672C11.9957 4.3796 12.0318 4.2868 12.0848 4.20364C12.1378 4.12047 12.2067 4.04856 12.2875 3.99202C12.3683 3.93547 12.4595 3.89539 12.5558 3.87408C12.6521 3.85276 12.7516 3.85062 12.8488 3.86778C12.9459 3.88493 13.0387 3.92105 13.1218 3.97407C13.205 4.02709 13.2769 4.09597 13.3335 4.17678C13.39 4.25759 13.4301 4.34875 13.4514 4.44505C13.4727 4.54134 13.4749 4.6409 13.4577 4.73802C13.4299 4.89495 12.7722 8.61021 12.0994 11.1526C12.0757 11.2224 12.0665 11.2963 12.0723 11.3697C12.0781 11.4432 12.0988 11.5147 12.1332 11.5799C12.2371 11.7234 12.3937 11.8198 12.5687 11.8479C12.9879 11.9179 13.4183 11.872 13.8133 11.7152C14.2083 11.5584 14.5529 11.2966 14.81 10.9581C15.7009 9.89242 16.1472 8.5246 16.0564 7.13852C16.0206 5.94021 15.6148 4.78235 14.8948 3.82383C14.1748 2.8653 13.1757 2.15307 12.0348 1.78489C10.7779 1.43915 9.45573 1.40442 8.18239 1.68371C6.90905 1.963 5.72279 2.54791 4.72595 3.38798C4.48492 3.58846 4.2499 3.79795 4.02465 4.0172C2.85781 5.1525 0.993421 7.5087 1.62189 10.5347C1.82937 11.5735 2.30468 12.5402 3.00073 13.3388C3.69678 14.1375 4.58941 14.7404 5.59019 15.0879C9.11172 16.2112 14.1725 16.3471 16.8381 13.032C16.9643 12.8818 17.1444 12.787 17.3397 12.7679C17.535 12.7488 17.73 12.8069 17.883 12.9298C18.036 13.0526 18.1348 13.2305 18.1583 13.4253C18.1818 13.6201 18.1281 13.8164 18.0087 13.9721C16.0369 16.4244 13.0365 17.3014 10.0931 17.3014Z" fill="#F44336"/>
<path d="M7.52304 13.4083C6.72925 13.4222 5.95493 13.1621 5.33053 12.6718C3.88962 11.5184 3.84983 9.51438 4.25379 8.15007C4.39045 7.6958 4.57291 7.25654 4.79967 6.83982C5.36301 5.70307 6.26383 4.76816 7.37887 4.163C8.05516 3.81219 8.82636 3.6882 9.57853 3.80934C10.3307 3.93049 11.024 4.29035 11.5559 4.83577C12.0977 5.42954 12.5059 6.13265 12.7528 6.89763C12.8149 7.08408 12.8014 7.28742 12.7152 7.46403C12.6291 7.64064 12.4771 7.77644 12.292 7.84229C12.1068 7.90813 11.9032 7.89877 11.7249 7.81621C11.5466 7.73365 11.4077 7.58448 11.3382 7.40071C11.1601 6.83574 10.8643 6.31494 10.4702 5.87271C10.1603 5.55576 9.75535 5.34878 9.31697 5.28331C8.87859 5.21784 8.43082 5.29746 8.04188 5.51004C7.20565 5.98166 6.53362 6.69771 6.11593 7.56214C5.9405 7.88615 5.79884 8.22733 5.69319 8.58031C5.40111 9.56694 5.46568 10.8554 6.2706 11.4997C7.15061 12.207 8.63581 11.9081 9.47152 11.1873C10.094 10.6266 10.6288 9.97557 11.0581 9.25609C11.1101 9.17227 11.1781 9.09952 11.2582 9.042C11.3384 8.98447 11.429 8.94328 11.5251 8.9208C11.6211 8.89831 11.7207 8.89496 11.818 8.91094C11.9153 8.92692 12.0086 8.96192 12.0924 9.01393C12.1762 9.06595 12.249 9.13396 12.3065 9.21409C12.364 9.29422 12.4052 9.38489 12.4277 9.48094C12.4502 9.57698 12.4535 9.67651 12.4375 9.77385C12.4216 9.87119 12.3866 9.96443 12.3346 10.0482C11.8256 10.8958 11.192 11.662 10.4551 12.3211C9.63417 13.0138 8.59718 13.3983 7.52304 13.4083Z" fill="#F44336"/>
</svg>

<svg width="19" height="18" fill="none" xmlns="http://www.w3.org/2000/svg"><path d="M10.093 17.301a16.601 16.601 0 0 1-4.959-.782A7.5 7.5 0 0 1 .152 10.84C-.414 8.118.617 5.24 2.978 2.941c.254-.247.517-.483.79-.709a9.57 9.57 0 0 1 8.714-1.88 7.296 7.296 0 0 1 5.072 6.71 6.912 6.912 0 0 1-1.615 4.885 3.797 3.797 0 0 1-3.714 1.364 2.144 2.144 0 0 1-1.38-.958 2.036 2.036 0 0 1-.198-1.584c.657-2.482 1.325-6.255 1.332-6.292a.752.752 0 0 1 1.479.261c-.028.157-.686 3.872-1.359 6.415a.542.542 0 0 0 .034.427c.104.143.26.24.436.268a2.332 2.332 0 0 0 2.241-.89 5.404 5.404 0 0 0 1.246-3.82 5.808 5.808 0 0 0-4.021-5.353 8.035 8.035 0 0 0-7.31 1.603c-.24.2-.475.41-.7.63-1.167 1.135-3.032 3.49-2.403 6.517a6.08 6.08 0 0 0 3.968 4.553c3.522 1.123 8.582 1.26 11.248-2.056a.75.75 0 0 1 1.17.94c-1.971 2.452-4.971 3.33-7.915 3.33z" fill="#F44336"/><path d="M7.523 13.408a3.452 3.452 0 0 1-2.192-.736C3.89 11.518 3.85 9.514 4.254 8.15c.136-.454.319-.893.546-1.31a6.155 6.155 0 0 1 2.579-2.677 3.55 3.55 0 0 1 4.177.673 5.62 5.62 0 0 1 1.197 2.062.75.75 0 0 1-1.415.503 4.19 4.19 0 0 0-.868-1.528 2.033 2.033 0 0 0-2.428-.363 4.707 4.707 0 0 0-1.926 2.052 5.376 5.376 0 0 0-.423 1.018c-.292.987-.227 2.275.578 2.92.88.707 2.365.408 3.2-.313a8.374 8.374 0 0 0 1.587-1.93.751.751 0 1 1 1.277.791 9.86 9.86 0 0 1-1.88 2.273 4.613 4.613 0 0 1-2.932 1.087z" fill="#F44336"/></svg>
